usr/share/icons/biglinux-icons-material/24/actions/edit-select-all.svg

<svg xmlns="http://www.w3.org/2000/svg" viewBox="0 0 24 24"><path d="M4 4v4h1V5h3V4H4zm12 0v1h3v3h1V4h-4zM6 6v5h5V6H6zm7 0v5h5V6h-5zM7 7h3v3H7V7zm7 0h3v3h-3V7zm-8 6v5h5v-5H6zm7 0v5h5v-5h-5zm-6 1h3v3H7v-3zm7 0h3v3h-3v-3zM4 16v4h4v-1H5v-3H4zm15 0v3h-3v1h4v-4h-1z" style="fill:currentColor;fill-opacity:1;stroke:none;color:#dedede"/></svg>

<svg xmlns="http://www.w3.org/2000/svg" viewBox="0 0 24 24">
  <defs id="defs3051">
    <style type="text/css" id="current-color-scheme">
      .ColorScheme-Text {
        color:#dedede;
      }
      </style>
  </defs>
 <path style="fill:currentColor;fill-opacity:1;stroke:none" 
     d="M 4 4 L 4 5 L 4 8 L 5 8 L 5 5 L 8 5 L 8 4 L 5 4 L 4 4 z M 16 4 L 16 5 L 19 5 L 19 8 L 20 8 L 20 4 L 16 4 z M 6 6 L 6 11 L 11 11 L 11 6 L 6 6 z M 13 6 L 13 11 L 18 11 L 18 6 L 13 6 z M 7 7 L 10 7 L 10 10 L 7 10 L 7 7 z M 14 7 L 17 7 L 17 10 L 14 10 L 14 7 z M 6 13 L 6 18 L 11 18 L 11 13 L 6 13 z M 13 13 L 13 18 L 18 18 L 18 13 L 13 13 z M 7 14 L 10 14 L 10 17 L 7 17 L 7 14 z M 14 14 L 17 14 L 17 17 L 14 17 L 14 14 z M 4 16 L 4 20 L 5 20 L 8 20 L 8 19 L 5 19 L 5 16 L 4 16 z M 19 16 L 19 19 L 16 19 L 16 20 L 20 20 L 20 19 L 20 16 L 19 16 z "
     class="ColorScheme-Text"
     />
</svg>
